X:1
T:Title
%%score ( 1 2 ) ( 3 4 )
L:1/8
Q:1/4=90
M:4/4
K:Ab
V:1 treble nm="Strings 1, Treble"
V:2 treble 
V:3 bass nm="Strings 1, Bass"
V:4 bass 
V:1
 z4 z2 [CE][CA] | [Ec]2 [Ec]2 [Ec]2 [CE][CE] | [DF]2 [DA]2 [FA]2 [EA][EB] | %3
w: 1.~Lord,~ I~|come~ to~ Thee~ with~ an~|ach ing~ heart,~ I~ am~|
 [Ec]2 [CA]2 [Ee]2 [Ec]2 | [EB]6 [CE][CA] | [Ec]2 [Ec]2 [Ec]2 [CE][CE] | %6
w: wait ing~ at~ the~|cross;~ I~ con|fess~ my~ guilt,~ and~ with~|
 [DF]2 [DA]2 [FA]2 [EA][FB] | [Ec]2 [Ae]2 [Ec]2 [DB]2 | [CA]6 z2 | [CE][CA] [Ec]>[=D_c] [E=c]4 | %10
w: sin~ I~ part,~ I~ am~|wait ing~ at~ the~|cross.~||
 [DF][FA] [Fd]>[=Ec] [Fd]4 | [CE][CA] [Ec]>[=D_c] [E=c]2 BA | B-[FB-][GB-][AB] [Be]4 | %13
w: |||
 [CE][CA] [Ec]>[=D_c] [E=c]4 | [DF][FA] [Fd]>[=Ec] [Fd]4 | [CE][CA] [Ec]>[=D_c] [E=c]2 [_DB]2 | %16
w: |||
 [CA]6 z2 |] %17
w: |
V:2
 x8 | x8 | x8 | x8 | x8 | x8 | x8 | x8 | x8 | x8 | x8 | z4 z2 =D2 | .E2 z2 z4 | x8 | x8 | x8 | %16
 x8 |] %17
V:3
 z4 z2 [A,,A,][A,,A,] | [A,,A,]2 [A,,A,]2 [A,,A,]2 [A,,A,][A,,A,] | %2
 [D,A,]2 [D,F,]2 [D,A,]2 [C,A,][B,,G,] | [A,,A,]2 A,2 [A,C]2 A,2 | [E,G,]6 [A,,A,][A,,A,] | %5
 [A,,A,]2 [A,,A,]2 [A,,A,]2 [A,,A,][A,,A,] | [D,A,]2 [D,F,]2 [D,A,]2 [C,A,][D,A,] | %7
 [E,A,]2 [E,C]2 [E,A,]2 [E,G,]2 | [A,,A,]6 z2 | [A,,A,][A,,A,] [A,,A,]>[A,,A,] [A,,A,]4 | %10
 [D,A,][D,A,] [D,A,]>[D,A,] [D,A,]4 | [A,,A,][A,,A,] [A,,A,]>[A,,A,] A,2 [F,A,]2 | G,A,B,C D4 | %13
 [A,,A,][A,,A,] [A,,A,]>[A,,A,] [A,,A,]4 | [D,A,][D,A,] [D,A,]>[D,A,] [D,A,]4 | %15
 [E,A,][E,A,] [A,,A,]>[A,,A,] [E,A,]2 [E,G,]2 | [A,,A,]6 z2 |] %17
V:4
 x8 | x8 | x8 | x8 | x8 | x8 | x8 | x8 | x8 | x8 | x8 | x8 | E,8 | x8 | x8 | x8 | x8 |] %17

